images/portal/4922.svg

<?xml version="1.0" standalone="no"?><!DOCTYPE svg PUBLIC "-//W3C//DTD SVG 1.1//EN" "http://www.w3.org/Graphics/SVG/1.1/DTD/svg11.dtd"><svg xmlns:xlink="http://www.w3.org/1999/xlink" version="1.1" class="highcharts-root" style="font-family:arial;font-size:12px;" xmlns="http://www.w3.org/2000/svg" width="485" height="415"><desc>Created with Highstock 5.0.14</desc><defs><clipPath id="highcharts-b08ez5e-6"><rect x="0" y="0" width="428" height="275" fill="none"></rect></clipPath><clipPath id="highcharts-b08ez5e-7"><rect x="0" y="0" width="428" height="275" fill="none"></rect></clipPath></defs><rect fill="#fbfbfb" class="highcharts-background" x="0" y="0" width="485" height="415" rx="0" ry="0"></rect><rect fill="none" class="highcharts-plot-background" x="47" y="75" width="428" height="275"></rect><g class="highcharts-pane-group"></g><g class="highcharts-grid highcharts-xaxis-grid "><path fill="none" class="highcharts-grid-line" d="M 67.5 75 L 67.5 350" opacity="1"></path><path fill="none" class="highcharts-grid-line" d="M 102.5 75 L 102.5 350" opacity="1"></path><path fill="none" class="highcharts-grid-line" d="M 137.5 75 L 137.5 350" opacity="1"></path><path fill="none" class="highcharts-grid-line" d="M 172.5 75 L 172.5 350" opacity="1"></path><path fill="none" class="highcharts-grid-line" d="M 207.5 75 L 207.5 350" opacity="1"></path><path fill="none" class="highcharts-grid-line" d="M 242.5 75 L 242.5 350" opacity="1"></path><path fill="none" class="highcharts-grid-line" d="M 278.5 75 L 278.5 350" opacity="1"></path><path fill="none" class="highcharts-grid-line" d="M 313.5 75 L 313.5 350" opacity="1"></path><path fill="none" class="highcharts-grid-line" d="M 348.5 75 L 348.5 350" opacity="1"></path><path fill="none" class="highcharts-grid-line" d="M 383.5 75 L 383.5 350" opacity="1"></path><path fill="none" class="highcharts-grid-line" d="M 418.5 75 L 418.5 350" opacity="1"></path><path fill="none" class="highcharts-grid-line" d="M 453.5 75 L 453.5 350" opacity="1"></path></g><g class="highcharts-grid highcharts-yaxis-grid "><path fill="none" stroke="#e6e6e6" stroke-width="1" class="highcharts-grid-line" d="M 47 350.5 L 475 350.5" opacity="1"></path><path fill="none" stroke="#e6e6e6" stroke-width="1" class="highcharts-grid-line" d="M 47 295.5 L 475 295.5" opacity="1"></path><path fill="none" stroke="#e6e6e6" stroke-width="1" class="highcharts-grid-line" d="M 47 240.5 L 475 240.5" opacity="1"></path><path fill="none" stroke="#e6e6e6" stroke-width="1" class="highcharts-grid-line" d="M 47 185.5 L 475 185.5" opacity="1"></path><path fill="none" stroke="#e6e6e6" stroke-width="1" class="highcharts-grid-line" d="M 47 130.5 L 475 130.5" opacity="1"></path><path fill="none" stroke="#e6e6e6" stroke-width="1" class="highcharts-grid-line" d="M 47 74.5 L 475 74.5" opacity="1"></path></g><rect fill="none" class="highcharts-plot-border" x="47" y="75" width="428" height="275"></rect><g class="highcharts-axis highcharts-xaxis "><path fill="none" class="highcharts-tick" stroke="#FFFFFF" stroke-width="1" d="M 67.5 350 L 67.5 360" opacity="1"></path><path fill="none" class="highcharts-tick" stroke="#FFFFFF" stroke-width="1" d="M 102.5 350 L 102.5 360" opacity="1"></path><path fill="none" class="highcharts-tick" stroke="#FFFFFF" stroke-width="1" d="M 137.5 350 L 137.5 360" opacity="1"></path><path fill="none" class="highcharts-tick" stroke="#FFFFFF" stroke-width="1" d="M 172.5 350 L 172.5 360" opacity="1"></path><path fill="none" class="highcharts-tick" stroke="#FFFFFF" stroke-width="1" d="M 207.5 350 L 207.5 360" opacity="1"></path><path fill="none" class="highcharts-tick" stroke="#FFFFFF" stroke-width="1" d="M 242.5 350 L 242.5 360" opacity="1"></path><path fill="none" class="highcharts-tick" stroke="#FFFFFF" stroke-width="1" d="M 278.5 350 L 278.5 360" opacity="1"></path><path fill="none" class="highcharts-tick" stroke="#FFFFFF" stroke-width="1" d="M 313.5 350 L 313.5 360" opacity="1"></path><path fill="none" class="highcharts-tick" stroke="#FFFFFF" stroke-width="1" d="M 348.5 350 L 348.5 360" opacity="1"></path><path fill="none" class="highcharts-tick" stroke="#FFFFFF" stroke-width="1" d="M 383.5 350 L 383.5 360" opacity="1"></path><path fill="none" class="highcharts-tick" stroke="#FFFFFF" stroke-width="1" d="M 418.5 350 L 418.5 360" opacity="1"></path><path fill="none" class="highcharts-tick" stroke="#FFFFFF" stroke-width="1" d="M 453.5 350 L 453.5 360" opacity="1"></path><path fill="none" class="highcharts-axis-line" stroke="#ccd6eb" stroke-width="1" d="M 47 350.5 L 475 350.5"></path></g><g class="highcharts-axis highcharts-yaxis "><path fill="none" class="highcharts-axis-line" d="M 47 75 L 47 350"></path></g><g class="highcharts-series-group"><g class="highcharts-series highcharts-series-0 highcharts-column-series highcharts-color-undefined " transform="translate(47,75) scale(1 1)" clip-path="url(#highcharts-b08ez5e-7)"><rect x="11.5" y="212.5" width="9" height="63" fill="#FABD24" stroke="#ffffff" stroke-width="1" class="highcharts-point"></rect><rect x="46.5" y="186.5" width="9" height="89" fill="#FABD24" stroke="#ffffff" stroke-width="1" class="highcharts-point"></rect><rect x="81.5" y="182.5" width="9" height="93" fill="#FABD24" stroke="#ffffff" stroke-width="1" class="highcharts-point"></rect><rect x="116.5" y="186.5" width="9" height="89" fill="#FABD24" stroke="#ffffff" stroke-width="1" class="highcharts-point"></rect><rect x="151.5" y="140.5" width="9" height="135" fill="#FABD24" stroke="#ffffff" stroke-width="1" class="highcharts-point"></rect><rect x="186.5" y="127.5" width="9" height="148" fill="#FABD24" stroke="#ffffff" stroke-width="1" class="highcharts-point"></rect><rect x="221.5" y="114.5" width="9" height="161" fill="#FABD24" stroke="#ffffff" stroke-width="1" class="highcharts-point"></rect><rect x="256.5" y="118.5" width="9" height="157" fill="#FABD24" stroke="#ffffff" stroke-width="1" class="highcharts-point"></rect><rect x="291.5" y="85.5" width="9" height="190" fill="#FABD24" stroke="#ffffff" stroke-width="1" class="highcharts-point"></rect><rect x="326.5" y="76.5" width="9" height="199" fill="#FABD24" stroke="#ffffff" stroke-width="1" class="highcharts-point"></rect><rect x="361.5" y="72.5" width="9" height="203" fill="#FABD24" stroke="#ffffff" stroke-width="1" class="highcharts-point"></rect><rect x="396.5" y="105.5" width="9" height="170" fill="#FABD24" stroke="#ffffff" stroke-width="1" class="highcharts-point"></rect></g><g class="highcharts-markers highcharts-series-0 highcharts-column-series highcharts-color-undefined " transform="translate(47,75) scale(1 1)" clip-path="none"></g><g class="highcharts-series highcharts-series-1 highcharts-column-series highcharts-color-undefined " transform="translate(47,75) scale(1 1)" clip-path="url(#highcharts-b08ez5e-7)"><rect x="21.5" y="164.5" width="9" height="111" fill="#923F8D" stroke="#ffffff" stroke-width="1" class="highcharts-point"></rect><rect x="56.5" y="168.5" width="9" height="107" fill="#923F8D" stroke="#ffffff" stroke-width="1" class="highcharts-point"></rect><rect x="91.5" y="144.5" width="9" height="131" fill="#923F8D" stroke="#ffffff" stroke-width="1" class="highcharts-point"></rect><rect x="126.5" y="131.5" width="9" height="144" fill="#923F8D" stroke="#ffffff" stroke-width="1" class="highcharts-point"></rect><rect x="162.5" y="113.5" width="9" height="162" fill="#923F8D" stroke="#ffffff" stroke-width="1" class="highcharts-point"></rect><rect x="197.5" y="84.5" width="9" height="191" fill="#923F8D" stroke="#ffffff" stroke-width="1" class="highcharts-point"></rect><rect x="232.5" y="86.5" width="9" height="189" fill="#923F8D" stroke="#ffffff" stroke-width="1" class="highcharts-point"></rect><rect x="267.5" y="61.5" width="9" height="214" fill="#923F8D" stroke="#ffffff" stroke-width="1" class="highcharts-point"></rect><rect x="302.5" y="74.5" width="9" height="201" fill="#923F8D" stroke="#ffffff" stroke-width="1" class="highcharts-point"></rect><rect x="337.5" y="76.5" width="9" height="199" fill="#923F8D" stroke="#ffffff" stroke-width="1" class="highcharts-point"></rect><rect x="372.5" y="84.5" width="9" height="191" fill="#923F8D" stroke="#ffffff" stroke-width="1" class="highcharts-point"></rect><rect x="407.5" y="87.5" width="9" height="188" fill="#923F8D" stroke="#ffffff" stroke-width="1" class="highcharts-point"></rect></g><g class="highcharts-markers highcharts-series-1 highcharts-column-series highcharts-color-undefined " transform="translate(47,75) scale(1 1)" clip-path="none"></g></g><text x="10" text-anchor="start" class="highcharts-title" style="color:#000000;font-size:14px;font-weight:bold;fill:#000000;" y="21"><tspan>Entwicklung des Frauenanteils bei den Kandidaturen und</tspan><tspan dy="17" x="10">Wahlen zum Grossen Rat seit 1968</tspan><title>Entwicklung des Frauenanteils bei den Kandidaturen und Wahlen zum Grossen Rat seit 1968</title></text><g class="highcharts-legend" transform="translate(128,45)"><rect fill="none" class="highcharts-legend-box" rx="0" ry="0" x="0" y="0" width="239" height="25" visibility="visible"></rect><g><g><g class="highcharts-legend-item highcharts-column-series highcharts-color-undefined highcharts-series-0" transform="translate(8,3)"><text x="21" style="color:#333333;font-size:12px;font-weight:normal;cursor:pointer;fill:#333333;" text-anchor="start" y="15"><tspan>Grossratswahlen</tspan></text><rect x="2" y="4" width="12" height="12" fill="#FABD24" class="highcharts-point"></rect></g><g class="highcharts-legend-item highcharts-column-series highcharts-color-undefined highcharts-series-1" transform="translate(138.96875,3)"><text x="21" y="15" style="color:#333333;font-size:12px;font-weight:normal;cursor:pointer;fill:#333333;" text-anchor="start"><tspan>Kandidaturen</tspan></text><rect x="2" y="4" width="12" height="12" fill="#923F8D" class="highcharts-point"></rect></g></g></g></g><g class="highcharts-axis-labels highcharts-xaxis-labels "><text x="68.36497545008226" style="color:#000000;cursor:default;font-size:11px;fill:#000000;" text-anchor="middle" transform="translate(0,0)" y="369" opacity="1">1968</text><text x="103.38952536824912" style="color:#000000;cursor:default;font-size:11px;fill:#000000;" text-anchor="middle" transform="translate(0,0)" y="369" opacity="1">1972</text><text x="138.414075286416" style="color:#000000;cursor:default;font-size:11px;fill:#000000;" text-anchor="middle" transform="translate(0,0)" y="369" opacity="1">1976</text><text x="173.43862520458285" style="color:#000000;cursor:default;font-size:11px;fill:#000000;" text-anchor="middle" transform="translate(0,0)" y="369" opacity="1">1980</text><text x="208.46317512274973" style="color:#000000;cursor:default;font-size:11px;fill:#000000;" text-anchor="middle" transform="translate(0,0)" y="369" opacity="1">1984</text><text x="243.4877250409166" style="color:#000000;cursor:default;font-size:11px;fill:#000000;" text-anchor="middle" transform="translate(0,0)" y="369" opacity="1">1988</text><text x="278.51227495908347" style="color:#000000;cursor:default;font-size:11px;fill:#000000;" text-anchor="middle" transform="translate(0,0)" y="369" opacity="1">1992</text><text x="313.5368248772503" style="color:#000000;cursor:default;font-size:11px;fill:#000000;" text-anchor="middle" transform="translate(0,0)" y="369" opacity="1">1996</text><text x="348.5613747954171" style="color:#000000;cursor:default;font-size:11px;fill:#000000;" text-anchor="middle" transform="translate(0,0)" y="369" opacity="1">2000</text><text x="383.585924713584" style="color:#000000;cursor:default;font-size:11px;fill:#000000;" text-anchor="middle" transform="translate(0,0)" y="369" opacity="1">2004</text><text x="418.6104746317509" style="color:#000000;cursor:default;font-size:11px;fill:#000000;" text-anchor="middle" transform="translate(0,0)" y="369" opacity="1">2008</text><text x="453.6350245499177" style="color:#000000;cursor:default;font-size:11px;fill:#000000;" text-anchor="middle" transform="translate(0,0)" y="369" opacity="1">2012</text></g><g class="highcharts-axis-labels highcharts-yaxis-labels "><text x="32" style="color:#000000;cursor:default;font-size:11px;fill:#000000;" text-anchor="end" transform="translate(0,0)" y="355" opacity="1"><tspan>0%</tspan></text><text x="32" style="color:#000000;cursor:default;font-size:11px;fill:#000000;" text-anchor="end" transform="translate(0,0)" y="300" opacity="1"><tspan>10%</tspan></text><text x="32" style="color:#000000;cursor:default;font-size:11px;fill:#000000;" text-anchor="end" transform="translate(0,0)" y="245" opacity="1"><tspan>20%</tspan></text><text x="32" style="color:#000000;cursor:default;font-size:11px;fill:#000000;" text-anchor="end" transform="translate(0,0)" y="190" opacity="1"><tspan>30%</tspan></text><text x="32" style="color:#000000;cursor:default;font-size:11px;fill:#000000;" text-anchor="end" transform="translate(0,0)" y="135" opacity="1"><tspan>40%</tspan></text><text x="32" style="color:#000000;cursor:default;font-size:11px;fill:#000000;" text-anchor="end" transform="translate(0,0)" y="80" opacity="1"><tspan>50%</tspan></text></g><text x="10" class="highcharts-credits" text-anchor="start" style="cursor:default;color:#000000;font-size:10px;fill:#000000;" y="400"><tspan>Quelle: Staatskanzlei Basel-Stadt</tspan></text></svg>

<svg class="highcharts-root" xmlns="http://www.w3.org/2000/svg" viewBox="0 0 485 415" font-family="arial" font-size="12">
    <defs>
        <clipPath id="a">
            <path fill="none" d="M0 0h428v275H0z"/>
        </clipPath>
    </defs>
    <rect fill="#fbfbfb" class="highcharts-background" width="485" height="415" rx="0" ry="0"/>
    <path fill="none" class="highcharts-plot-background" d="M47 75h428v275H47z"/>
    <g class="highcharts-grid highcharts-xaxis-grid">
        <path fill="none" class="highcharts-grid-line" d="M67.5 75v275m35-275v275m35-275v275m35-275v275m35-275v275m35-275v275m36-275v275m35-275v275m35-275v275m35-275v275m35-275v275m35-275v275"/>
    </g>
    <g class="highcharts-grid highcharts-yaxis-grid">
        <path fill="none" stroke="#e6e6e6" class="highcharts-grid-line" d="M47 350.5h428m-428-55h428m-428-55h428m-428-55h428m-428-55h428m-428-56h428"/>
    </g>
    <path fill="none" class="highcharts-plot-border" d="M47 75h428v275H47z"/>
    <g class="highcharts-axis highcharts-xaxis">
        <path fill="none" class="highcharts-tick" stroke="#FFF" d="M67.5 350v10m35-10v10m35-10v10m35-10v10m35-10v10m35-10v10m36-10v10m35-10v10m35-10v10m35-10v10m35-10v10m35-10v10"/>
        <path fill="none" class="highcharts-axis-line" stroke="#ccd6eb" d="M47 350.5h428"/>
    </g>
    <g class="highcharts-axis highcharts-yaxis">
        <path fill="none" class="highcharts-axis-line" d="M47 75v275"/>
    </g>
    <g class="highcharts-series-group">
        <g class="highcharts-series highcharts-series-0 highcharts-column-series highcharts-color-undefined" transform="translate(47 75)" clip-path="url(#a)">
            <path fill="#FABD24" stroke="#fff" class="highcharts-point" d="M11.5 212.5h9v63h-9zm35-26h9v89h-9zm35-4h9v93h-9zm35 4h9v89h-9zm35-46h9v135h-9zm35-13h9v148h-9zm35-13h9v161h-9zm35 4h9v157h-9zm35-33h9v190h-9zm35-9h9v199h-9zm35-4h9v203h-9zm35 33h9v170h-9z"/>
        </g>
        <g class="highcharts-series highcharts-series-1 highcharts-column-series highcharts-color-undefined" transform="translate(47 75)" clip-path="url(#a)">
            <path fill="#923F8D" stroke="#fff" class="highcharts-point" d="M21.5 164.5h9v111h-9zm35 4h9v107h-9zm35-24h9v131h-9zm35-13h9v144h-9zm36-18h9v162h-9zm35-29h9v191h-9zm35 2h9v189h-9zm35-25h9v214h-9zm35 13h9v201h-9zm35 2h9v199h-9zm35 8h9v191h-9zm35 3h9v188h-9z"/>
        </g>
    </g>
    <text x="10" class="highcharts-title" y="21" color="#000" font-size="14" font-weight="700">
        <tspan>Entwicklung des Frauenanteils bei den Kandidaturen und</tspan><tspan dy="17" x="10">Wahlen zum Grossen Rat seit 1968</tspan><title>Entwicklung des Frauenanteils bei den Kandidaturen und Wahlen zum Grossen Rat seit 1968</title>
    </text>
    <g class="highcharts-legend" transform="translate(128 45)">
        <rect fill="none" class="highcharts-legend-box" rx="0" ry="0" width="239" height="25"/>
        <g class="highcharts-legend-item highcharts-column-series highcharts-color-undefined highcharts-series-0">
            <text x="21" y="15" color="#333" font-weight="400" cursor="pointer" fill="#333" transform="translate(8 3)">
                <tspan>Grossratswahlen</tspan>
            </text>
            <path fill="#FABD24" class="highcharts-point" d="M10 7h12v12H10z"/>
        </g>
        <g class="highcharts-legend-item highcharts-column-series highcharts-color-undefined highcharts-series-1">
            <text x="21" y="15" color="#333" font-weight="400" cursor="pointer" fill="#333" transform="translate(138.969 3)">
                <tspan>Kandidaturen</tspan>
            </text>
            <path fill="#923F8D" class="highcharts-point" d="M140.969 7h12v12h-12z"/>
        </g>
    </g>
    <g class="highcharts-axis-labels highcharts-xaxis-labels" text-anchor="middle" color="#000" cursor="default" font-size="11">
        <text x="68.365" y="369">
            1968
        </text>
        <text x="103.39" y="369">
            1972
        </text>
        <text x="138.414" y="369">
            1976
        </text>
        <text x="173.439" y="369">
            1980
        </text>
        <text x="208.463" y="369">
            1984
        </text>
        <text x="243.488" y="369">
            1988
        </text>
        <text x="278.512" y="369">
            1992
        </text>
        <text x="313.537" y="369">
            1996
        </text>
        <text x="348.561" y="369">
            2000
        </text>
        <text x="383.586" y="369">
            2004
        </text>
        <text x="418.61" y="369">
            2008
        </text>
        <text x="453.635" y="369">
            2012
        </text>
    </g>
    <g class="highcharts-axis-labels highcharts-yaxis-labels" text-anchor="end" color="#000" cursor="default" font-size="11">
        <text x="32" y="355">
            <tspan>0%</tspan>
        </text>
        <text x="32" y="300">
            <tspan>10%</tspan>
        </text>
        <text x="32" y="245">
            <tspan>20%</tspan>
        </text>
        <text x="32" y="190">
            <tspan>30%</tspan>
        </text>
        <text x="32" y="135">
            <tspan>40%</tspan>
        </text>
        <text x="32" y="80">
            <tspan>50%</tspan>
        </text>
    </g>
    <text x="10" class="highcharts-credits" y="400" cursor="default" color="#000" font-size="10">
        <tspan>Quelle: Staatskanzlei Basel-Stadt</tspan>
    </text>
</svg>
